X: 38545
T: Sterling Tom
R: reel
M: 4/4
K: Fmajor
|:(3fff|fcAc FcAF|(3EFG cG ECCe|fcAc FcAc|defg affe|
fcAc FcAF|(3EFG cG ECCE|FAcf agfe|1 fcAc F2:|2 fcAc F2A2||
|:d3e f2fg|a^gab a=gfe|d^cde f2Ag|afed dcBA|
dAeA fAgA|a2 (3fga gbag|fed^c dBAG|1 F2~E2 DEFA:|2 ~F2EF D2||

